X:185
T: Bush Hornpipe
S: "Treoir"
Z: B.Black
M: 4/4
L: 1/8
R: hornpipe
K: Ador
ed | cABG A2 BA | GEDE G2 Bd | (3efg fa gedc |\
B2 G2 G2 ed |
cABG AcBA | GEDE G2 Bd | (3efg fa gedB |\
A2 AG A2 :|
d2 | eaab agef | gedB G2 ef | g2 gf gfef |\
gedB (3GAB AG |
EAAG AcBA | GEDE G2 Bd | (3efg fa gedB |\
A2 AG A2 :|
